qml/icons/fallback/edit-find-symbolic.svg

<?xml version="1.0" encoding="UTF-8" standalone="no"?>
<!-- Created with Inkscape (http://www.inkscape.org/) -->

<svg
   xmlns:dc="http://purl.org/dc/elements/1.1/"
   xmlns:cc="http://creativecommons.org/ns#"
   xmlns:rdf="http://www.w3.org/1999/02/22-rdf-syntax-ns#"
   xmlns:svg="http://www.w3.org/2000/svg"
   xmlns="http://www.w3.org/2000/svg"
   xmlns:sodipodi="http://sodipodi.sourceforge.net/DTD/sodipodi-0.dtd"
   xmlns:inkscape="http://www.inkscape.org/namespaces/inkscape"
   width="64"
   height="64"
   id="svg1901"
   sodipodi:version="0.32"
   inkscape:version="0.92.4 5da689c313, 2019-01-14"
   sodipodi:docname="search_kirigami.svg"
   version="1.1"
   inkscape:export-xdpi="67.5"
   inkscape:export-ydpi="67.5"
   inkscape:export-filename="/home/mo/Dokumente/Pure Maps/missing/search_kirigami.png">
  <defs
     id="defs1903" />
  <sodipodi:namedview
     id="base"
     pagecolor="#ffffff"
     bordercolor="#666666"
     borderopacity="1.0"
     inkscape:pageopacity="0.0"
     inkscape:pageshadow="2"
     inkscape:zoom="13.464492"
     inkscape:cx="-12.597729"
     inkscape:cy="29.409243"
     inkscape:document-units="px"
     inkscape:current-layer="g825"
     inkscape:window-width="2880"
     inkscape:window-height="1506"
     inkscape:window-x="0"
     inkscape:window-y="0"
     showgrid="true"
     inkscape:window-maximized="1"
     inkscape:showpageshadow="false"
     showguides="true"
     inkscape:snap-grids="true"
     inkscape:snap-global="true"
     inkscape:snap-intersection-paths="true"
     inkscape:object-nodes="true"
     inkscape:snap-smooth-nodes="true"
     inkscape:snap-midpoints="true"
     inkscape:object-paths="true"
     inkscape:document-rotation="0"
     inkscape:guide-bbox="true">
    <inkscape:grid
       type="xygrid"
       id="grid10137"
       empspacing="16"
       visible="true"
       enabled="true"
       snapvisiblegridlinesonly="true" />
    <sodipodi:guide
       position="10,35"
       orientation="1,0"
       id="guide866"
       inkscape:locked="false" />
    <sodipodi:guide
       position="5,38"
       orientation="1,0"
       id="guide868"
       inkscape:locked="false" />
  </sodipodi:namedview>
  <metadata
     id="metadata1906">
    <rdf:RDF>
      <cc:Work
         rdf:about="">
        <dc:format>image/svg+xml</dc:format>
        <dc:type
           rdf:resource="http://purl.org/dc/dcmitype/StillImage" />
        <dc:title></dc:title>
      </cc:Work>
    </rdf:RDF>
  </metadata>
  <g
     inkscape:label="Taso 1"
     inkscape:groupmode="layer"
     id="layer1"
     transform="translate(0,-988.3622)">
    <g
       id="g825"
       transform="translate(-0.8572132,0.17178455)">
      <path
         style="opacity:1;fill:#000000;fill-opacity:1;stroke:none;stroke-width:0;stroke-linecap:butt;stroke-linejoin:miter;stroke-miterlimit:4;stroke-dasharray:none;stroke-opacity:1;paint-order:stroke markers fill"
         d="M 25.5 0 C 11.416739 0 0 11.416739 0 25.5 C 0 39.583261 11.416739 51 25.5 51 C 30.494379 51 35.142897 49.54807 39.076172 47.066406 L 56.005859 63.996094 C 57.987031 63.604094 59.814021 62.626772 61.242188 61.201172 C 62.668532 59.774872 63.64523 57.943391 64.037109 55.962891 L 47.097656 39.023438 C 49.559284 35.101162 51 30.472395 51 25.5 C 51 11.416739 39.583261 0 25.5 0 z M 25.496094 9.6386719 C 34.210705 9.6386719 41.353516 16.780341 41.353516 25.494141 C 41.353516 34.207741 34.210717 41.347656 25.496094 41.347656 C 16.781444 41.347656 9.640625 34.207741 9.640625 25.494141 C 9.640625 16.780341 16.781444 9.6386719 25.496094 9.6386719 z "
         transform="translate(0.8572132,988.19042)"
         id="path822" />
    </g>
  </g>
</svg>

<svg xmlns="http://www.w3.org/2000/svg" width="64" height="64"><path style="opacity:1;fill:#000;fill-opacity:1;stroke:none;stroke-width:0;stroke-linecap:butt;stroke-linejoin:miter;stroke-miterlimit:4;stroke-dasharray:none;stroke-opacity:1;paint-order:stroke markers fill" d="M25.5 0C11.417 0 0 11.417 0 25.5S11.417 51 25.5 51c4.994 0 9.643-1.452 13.576-3.934l16.93 16.93a10.238 10.238 0 0 0 5.236-2.795 10.233 10.233 0 0 0 2.795-5.238l-16.94-16.94A25.352 25.352 0 0 0 51 25.5C51 11.417 39.583 0 25.5 0zm-.004 9.639c8.715 0 15.858 7.141 15.858 15.855S34.21 41.348 25.496 41.348 9.641 34.208 9.641 25.494c0-8.714 7.14-15.855 15.855-15.855z"/></svg>
